packages/kaspersky-hexa-ui-icons/src/iconsSVGs/16/FolderSolid.svg

<svg width="16" height="16" viewBox="0 0 16 16" fill="none" xmlns="http://www.w3.org/2000/svg">
<path fill-rule="evenodd" clip-rule="evenodd" d="M1.05005 3.94534C1.05005 2.81271 1.96823 1.89453 3.10086 1.89453H5.94825C6.53209 1.89453 7.09256 2.12392 7.50887 2.53326L8.27847 3.28998H12.8992C14.0319 3.28998 14.95 4.20816 14.95 5.34079V12.0549C14.95 13.1875 14.0319 14.1057 12.8992 14.1057H3.10086C1.96823 14.1057 1.05005 13.1875 1.05005 12.0549V3.94534Z" fill="black"/>
</svg>

<svg xmlns="http://www.w3.org/2000/svg" width="16" height="16" fill="none" viewBox="0 0 16 16"><path fill="#000" fill-rule="evenodd" d="M1.05 3.9452c0-1.1326.9182-2.0508 2.0509-2.0508h2.8473a2.226 2.226 0 0 1 1.5607.6387l.7696.7568h4.6207c1.1327 0 2.0508.9181 2.0508 2.0508v6.714c0 1.1327-.9181 2.0508-2.0508 2.0508H3.1009c-1.1327 0-2.0509-.9181-2.0509-2.0508z"/></svg>
